public/images/circule-arrwos.svg

<svg width="64" height="52" viewBox="0 0 64 52" fill="none" xmlns="http://www.w3.org/2000/svg">
<path d="M37.9495 36.9139L37.9494 36.914C36.1236 37.9155 34.0818 38.4386 31.9642 38.4386C26.6477 38.4386 22.1136 35.0921 20.3198 30.4049L20.0081 29.5905H20.8802H25.0727C25.3684 29.5905 25.6402 29.4285 25.7803 29.1687L25.7805 29.1684C25.921 28.9083 25.9077 28.5917 25.7466 28.3447L37.9495 36.9139ZM37.9495 36.9139C38.45 36.6392 39.1089 36.7917 39.4706 37.2869L45.226 45.1708C45.6453 45.7456 45.489 46.5543 44.9002 46.9191C41.0188 49.3236 36.5853 50.5861 31.9642 50.5861C19.7952 50.5861 9.66389 41.7089 7.6936 30.0909L7.60886 29.5912H7.10205H1.75673C1.46149 29.5912 1.1893 29.4289 1.04892 29.1691L1.04858 29.1684C0.907812 28.9086 0.921118 28.5924 1.08272 28.3456L1.08288 28.3454L12.7407 10.5211C12.7407 10.5211 12.7407 10.5211 12.7407 10.5211C12.8898 10.2934 13.143 10.1566 13.4147 10.1566C13.6865 10.1566 13.9396 10.2934 14.0888 10.5211L25.7463 28.3443L37.9495 36.9139Z" fill="url(#paint0_linear_664_2450)" stroke="url(#paint1_linear_664_2450)" stroke-width="1.2"/>
<path d="M56.1368 21.2855L56.2307 21.7717H56.7259H62.1724C62.4687 21.7717 62.74 21.9337 62.8802 22.1932L63.4081 21.908L62.8802 22.1932C63.021 22.4538 63.0076 22.7696 62.8464 23.0159L62.8462 23.0162L51.1883 40.8406C51.0399 41.0674 50.7861 41.2049 50.5144 41.2049C50.2427 41.2049 49.9889 41.0674 49.8405 40.8406L38.1825 23.0162L38.1824 23.0159C38.0208 22.7691 38.0075 22.4529 38.1482 22.1931L38.1486 22.1925C38.2887 21.9331 38.5606 21.771 38.8564 21.771H42.822H43.7442L43.3705 20.9279C41.4323 16.5543 37.0544 13.4877 31.9649 13.4877C30.0708 13.4877 28.2232 13.9119 26.5419 14.7242L26.5416 14.7243C26.0332 14.9703 25.3837 14.7836 25.0477 14.2705L19.6996 6.10185C19.6996 6.10185 19.6996 6.10184 19.6996 6.10183C19.3101 5.50684 19.5063 4.70997 20.1071 4.37942L20.1073 4.37934C23.7282 2.38613 27.7903 1.34023 31.9649 1.34023C43.9405 1.34023 53.945 9.93757 56.1368 21.2855Z" fill="url(#paint2_linear_664_2450)" stroke="url(#paint3_linear_664_2450)" stroke-width="1.2"/>
<defs>
<linearGradient id="paint0_linear_664_2450" x1="0.351562" y1="30.3714" x2="46.0623" y2="30.3714" gradientUnits="userSpaceOnUse">
<stop stop-color="#084196"/>
<stop offset="1" stop-color="#00C0FF"/>
</linearGradient>
<linearGradient id="paint1_linear_664_2450" x1="0.351562" y1="30.3714" x2="46.0623" y2="30.3714" gradientUnits="userSpaceOnUse">
<stop stop-color="#084398"/>
<stop offset="1" stop-color="#00BEFD"/>
</linearGradient>
<linearGradient id="paint2_linear_664_2450" x1="18.8984" y1="21.2726" x2="63.5772" y2="21.2726" gradientUnits="userSpaceOnUse">
<stop stop-color="#084196"/>
<stop offset="1" stop-color="#00C0FF"/>
</linearGradient>
<linearGradient id="paint3_linear_664_2450" x1="18.8984" y1="21.2726" x2="63.5772" y2="21.2726" gradientUnits="userSpaceOnUse">
<stop stop-color="#084398"/>
<stop offset="1" stop-color="#00BEFD"/>
</linearGradient>
</defs>
</svg>

<svg xmlns="http://www.w3.org/2000/svg" width="64" height="52" fill="none"><path fill="url(#a)" stroke="url(#b)" stroke-width="1.2" d="M37.95 36.914a12.4 12.4 0 0 1-5.986 1.525c-5.316 0-9.85-3.347-11.644-8.034l-.312-.815h5.065a.807.807 0 0 0 .674-1.246zm0 0c.5-.275 1.159-.122 1.52.373l5.756 7.884c.42.575.263 1.383-.326 1.748a24.43 24.43 0 0 1-12.936 3.667c-12.169 0-22.3-8.877-24.27-20.495l-.085-.5H1.757a.804.804 0 0 1-.674-1.246L12.74 10.521a.805.805 0 0 1 1.348 0l11.657 17.823z"/><path fill="url(#c)" stroke="url(#d)" stroke-width="1.2" d="m56.137 21.286.094.486h5.941c.297 0 .568.162.708.421l.528-.285-.528.285c.141.26.128.577-.034.823L51.188 40.841a.806.806 0 0 1-1.348 0L38.183 23.016a.804.804 0 0 1 .674-1.245h4.888l-.373-.843c-1.939-4.374-6.317-7.44-11.406-7.44-1.894 0-3.742.424-5.423 1.236-.509.246-1.158.06-1.494-.453L19.7 6.1c-.39-.594-.194-1.391.407-1.722A24.54 24.54 0 0 1 31.965 1.34c11.976 0 21.98 8.598 24.172 19.946Z"/><defs><linearGradient id="a" x1=".352" x2="46.062" y1="30.371" y2="30.371" gradientUnits="userSpaceOnUse"><stop stop-color="#084196"/><stop offset="1" stop-color="#00C0FF"/></linearGradient><linearGradient id="b" x1=".352" x2="46.062" y1="30.371" y2="30.371" gradientUnits="userSpaceOnUse"><stop stop-color="#084398"/><stop offset="1" stop-color="#00BEFD"/></linearGradient><linearGradient id="c" x1="18.898" x2="63.577" y1="21.273" y2="21.273" gradientUnits="userSpaceOnUse"><stop stop-color="#084196"/><stop offset="1" stop-color="#00C0FF"/></linearGradient><linearGradient id="d" x1="18.898" x2="63.577" y1="21.273" y2="21.273" gradientUnits="userSpaceOnUse"><stop stop-color="#084398"/><stop offset="1" stop-color="#00BEFD"/></linearGradient></defs></svg>
